!!!OTL: ICH SPRING AN DIESEM RINGE
!!!ARE: Europa, Mitteleuropa, Deutschland
!!!SCT: E0930
!!!YEM: Copyright 1995, estate of Helmut Schaffrath.
**kern
*ICvox
*Ivox
*M6/4
*k[b-]
*F:
{4f
=1
2f
4f
2a
4a
=2
2.cc
2cc}
{4cc
=3
2cc
4cc
2dd
4dd
=4
2.cc
2a}
{4f
=5
2f
4f
2a
4a
=6
2.cc
2cc}
{4cc
=7
2cc
4cc
2dd
4dd
=8
2.cc
2ee}
{4ee
=9
2ff
4ff
2ee
4dd
=10
2.cc
2a}
{4a
=11
2cc
4cc
2dd
4dd
=12
2.cc
2b-}
{4b-
=13
2a
4a
2g
4g
=14
1f
4r}
==
!!!AGN: Tanz - Lied, Reigen
!!!ONB: ESAC (Essen Associative Code) Database: ERK2
!!!AMT: compound duple
!!!AIN: vox
!!!EED: Helmut Schaffrath
!!!EEV: 1.0
*-
